dist/svg/chart-pie.svg

<!-- Generated by Trend Micro Style Portal -->
<svg version="1.1" xmlns="http://www.w3.org/2000/svg" width="16" height="16" viewBox="0 0 16 16">
  <title>chart-pie</title>
  <path fill="rgb(34,34,34)" d="M7 8l5.067 5.125c-1.173 1.159-2.787 1.875-4.567 1.875-3.59 0-6.5-2.91-6.5-6.5v0c0-3.59 2.41-6.5 6-6.5zM9.036 8l4.398 4.398c0.975-1.187 1.567-2.722 1.567-4.394 0-0.001 0-0.003 0-0.004v0zM8 1v6h6.922c-0.766-3.267-3.522-5.71-6.893-5.998l-0.029-0.002z"></path>
</svg>

<svg width="16" height="16" viewBox="0 0 16 16" fill="rgb(34, 34, 34)" xmlns="http://www.w3.org/2000/svg"><title>chart-pie</title><path d="M7 8L12.067 13.125C10.894 14.284 9.28 15 7.5 15C3.91 15 1 12.09 1 8.5C1 4.91 3.41 2 7 2V8ZM9.036 8L13.434 12.398C14.409 11.211 15.001 9.676 15.001 8.004C15.001 8.003 15.001 8.001 15.001 8H9.036ZM8 1V7H14.922C14.156 3.733 11.4 1.29 8.029 1.002L8 1Z" fill="rgb(34, 34, 34)" fill-opacity="1.00"/></svg>
